X: 29215
T: New Fiddle, The
R: jig
M: 6/8
K: Emajor
a|"E"g2e edc|BGE EGB|"D"=dcB AF=D|A,=DF A=df|
"E"g2e edc|BGE EGB|"D"=dcB AGF|"E"E3 E2:|
a|"E"gbe bge|Bba gfe|"D"=dcB AF=D|A,=DF A=df|
"E"gbe bge|Bba gfe|"D"=dcB AGF|"E"E3 E2 a||
"E"gbe bge|Bba gfe|"D"=dcB AF=D|A,=DF A=df|
"E"gbg "B7"faf|"E"eba gfe|"D"=dcB AGF|"E"E3 E2||

